X: 13510
T: Flowers Of Edinburgh, The
R: reel
M: 4/4
K: Gmajor
|:GE|D2DE G2GA|BGBd cBAG|FGFE DEFG|AFdF E2FE|
D2DE G2GA|BGBd efge|dcBA GFGA|B2G2 G2:|
|:de/f/|g2g2 gbag|f2f2 fagf|e2ef gfed|B2e2 e2ge|
dBGB d2Bd|edef g2fe|dcBA GFGA|B2G2 G2:|

